build/images/book.svg

<svg xmlns="http://www.w3.org/2000/svg" viewBox="0 0 35 34" width="35" height="34"><style/><g id="service"><g id="4"><path id="BOOK 2" d="M33.06 26.89l-14.47 5.99c-.18.08-.38.12-.59.12-.21 0-.41-.04-.59-.12L2.94 26.89c-.55-.22-.94-.76-.94-1.39v-23C2 1.67 2.67 1 3.5 1c.2 0 .4.04.57.11h.01c0 .01 0 .01.01.01L18 6.88l13.91-5.76s.01 0 .01-.01h.01c.17-.07.37-.11.57-.11.83 0 1.5.67 1.5 1.5v23c0 .63-.39 1.17-.94 1.39zM16.5 9.5L5 4.74V24.5l11.5 4.76V9.5zM31 4.74L19.5 9.5v19.76L31 24.5V4.74zm-9.12 6.89l5.5-2.5c.19-.08.4-.13.62-.13.83 0 1.5.67 1.5 1.5 0 .61-.36 1.13-.88 1.37l-5.5 2.5c-.19.08-.4.13-.62.13-.83 0-1.5-.67-1.5-1.5 0-.61.36-1.13.88-1.37zm0 5.5l5.5-2.5c.19-.08.4-.13.62-.13.83 0 1.5.67 1.5 1.5 0 .61-.36 1.13-.88 1.37l-5.5 2.5v-.01c-.19.09-.4.14-.62.14-.83 0-1.5-.67-1.5-1.5 0-.61.36-1.13.88-1.37zm0 5.5l5.5-2.5c.19-.08.4-.13.62-.13.83 0 1.5.67 1.5 1.5 0 .61-.36 1.13-.88 1.37l-5.5 2.5c-.19.08-.4.13-.62.13-.83 0-1.5-.67-1.5-1.5 0-.61.36-1.13.88-1.37zM8 9c.22 0 .43.05.62.13l5.5 2.5c.52.24.88.76.88 1.37 0 .83-.67 1.5-1.5 1.5a1.6 1.6 0 01-.62-.13l-5.5-2.5c-.52-.24-.88-.76-.88-1.37C6.5 9.67 7.17 9 8 9zm0 5.5c.22 0 .43.05.62.13l5.5 2.5c.52.24.88.76.88 1.37 0 .83-.67 1.5-1.5 1.5-.22 0-.43-.05-.62-.14v.01l-5.5-2.5c-.52-.24-.88-.76-.88-1.37 0-.83.67-1.5 1.5-1.5zM8 20c.22 0 .43.05.62.13l5.5 2.5c.52.24.88.76.88 1.37 0 .83-.67 1.5-1.5 1.5a1.6 1.6 0 01-.62-.13l-5.5-2.5c-.52-.24-.88-.76-.88-1.37 0-.83.67-1.5 1.5-1.5z" fill="#95e1d3"/></g></g></svg>

<svg xmlns="http://www.w3.org/2000/svg" viewBox="0 0 35 34" width="35" height="34">
	<style>
		tspan { white-space:pre }
		.shp0 { fill: #95e1d3 } 
	</style>
	<g id="service">
		<g id="4">
			<path id="BOOK 2" class="shp0" d="M33.06 26.89L18.59 32.88C18.41 32.96 18.21 33 18 33C17.79 33 17.59 32.96 17.41 32.88L2.94 26.89C2.39 26.67 2 26.13 2 25.5L2 2.5C2 1.67 2.67 1 3.5 1C3.7 1 3.9 1.04 4.07 1.11L4.07 1.11L4.08 1.11C4.08 1.12 4.08 1.12 4.09 1.12L18 6.88L31.91 1.12C31.91 1.12 31.92 1.12 31.92 1.11L31.93 1.11L31.93 1.11C32.1 1.04 32.3 1 32.5 1C33.33 1 34 1.67 34 2.5L34 25.5C34 26.13 33.61 26.67 33.06 26.89ZM16.5 9.5L5 4.74L5 24.5L16.5 29.26L16.5 9.5ZM31 4.74L19.5 9.5L19.5 29.26L31 24.5L31 4.74ZM21.88 11.63L27.38 9.13L27.38 9.13C27.57 9.05 27.78 9 28 9C28.83 9 29.5 9.67 29.5 10.5C29.5 11.11 29.14 11.63 28.62 11.87L28.62 11.87L23.12 14.37L23.12 14.37C22.93 14.45 22.72 14.5 22.5 14.5C21.67 14.5 21 13.83 21 13C21 12.39 21.36 11.87 21.88 11.63ZM21.88 17.13L21.88 17.13L27.38 14.63L27.38 14.63C27.57 14.55 27.78 14.5 28 14.5C28.83 14.5 29.5 15.17 29.5 16C29.5 16.61 29.14 17.13 28.62 17.37L23.12 19.87L23.12 19.86C22.93 19.95 22.72 20 22.5 20C21.67 20 21 19.33 21 18.5C21 17.89 21.36 17.37 21.88 17.13ZM21.88 22.63L21.88 22.63L27.38 20.13L27.38 20.13C27.57 20.05 27.78 20 28 20C28.83 20 29.5 20.67 29.5 21.5C29.5 22.11 29.14 22.63 28.62 22.87L28.62 22.87L23.12 25.37L23.12 25.37C22.93 25.45 22.72 25.5 22.5 25.5C21.67 25.5 21 24.83 21 24C21 23.39 21.36 22.87 21.88 22.63ZM8 9C8.22 9 8.43 9.05 8.62 9.13L8.62 9.13L14.12 11.63L14.12 11.63C14.64 11.87 15 12.39 15 13C15 13.83 14.33 14.5 13.5 14.5C13.28 14.5 13.07 14.45 12.88 14.37L12.88 14.37L7.38 11.87L7.38 11.87C6.86 11.63 6.5 11.11 6.5 10.5C6.5 9.67 7.17 9 8 9ZM8 14.5C8.22 14.5 8.43 14.55 8.62 14.63L8.62 14.63L14.12 17.13L14.12 17.13C14.64 17.37 15 17.89 15 18.5C15 19.33 14.33 20 13.5 20C13.28 20 13.07 19.95 12.88 19.86L12.88 19.87L7.38 17.37L7.38 17.37C6.86 17.13 6.5 16.61 6.5 16C6.5 15.17 7.17 14.5 8 14.5ZM8 20C8.22 20 8.43 20.05 8.62 20.13L8.62 20.13L14.12 22.63L14.12 22.63C14.64 22.87 15 23.39 15 24C15 24.83 14.33 25.5 13.5 25.5C13.28 25.5 13.07 25.45 12.88 25.37L12.88 25.37L7.38 22.87L7.38 22.87C6.86 22.63 6.5 22.11 6.5 21.5C6.5 20.67 7.17 20 8 20Z" />
		</g>
	</g>
</svg>
